resources/svg/game-controller.svg

<svg xmlns="http://www.w3.org/2000/svg" viewBox="0 0 15 15" fill="currentColor"><path fill-rule="evenodd" clip-rule="evenodd" d="M0 5.5C0 3.567 1.567 2 3.5 2H11.5C13.433 2 15 3.567 15 5.5V10.0279C15 11.6693 13.6693 13 12.0279 13C10.9021 13 9.87296 12.364 9.3695 11.357L9.19098 11H5.80902L5.6305 11.357C5.12704 12.364 4.0979 13 2.97214 13C1.33067 13 0 11.6693 0 10.0279V5.5ZM4 8V7H3V6H4V5H5V6H6V7H5V8H4ZM10 8H9V7H10V8ZM11 6H12V5H11V6Z" fill="black"/></svg>

<svg xmlns="http://www.w3.org/2000/svg" viewBox="0 0 15 15" fill="currentColor"><path fill-rule="evenodd" clip-rule="evenodd" d="M0 5.5A3.5 3.5 0 013.5 2h8A3.5 3.5 0 0115 5.5v4.528a2.972 2.972 0 01-5.63 1.329L9.19 11H5.809l-.179.357A2.972 2.972 0 010 10.027V5.5zM4 8V7H3V6h1V5h1v1h1v1H5v1H4zm6 0H9V7h1v1zm1-2h1V5h-1v1z" fill="currentColor"/></svg>
